X:3833
T:Danza (Teberga 5)
C:Trad
Z:Teberga
M:3/8
L:1/8
Q:3/8=66
K:Am
E|: A2 ^G|AcB|A2 A-|A3|B>AG|GGF|E2 E-|E3|
    |A>GG|FGF|E2 D-|D3|GFG|FGF|E2 E-|[1 E2 z E :|[2 E2 z|
